X:10
T:No.110 The Hare in the Corn
M:4/4
L:1/8
C:reel
K:D
eAcA eAcA|GBde dBGg|e2cA eAcA|
dBGB Agfa|e2cA eAcA|GBde dBGB|
=c2Ac B2GB|[1dBGB Agfa:|[2dBGB A^GAB||
=c2ec gcec|=c2ec dBGB|=c2ec gceg|
dBGB A^GAB|=cdef ggfg|afge dBGB|
=c2Ac B2GB|[1dBGB A^GAB:|[2dBGB Agfa||
